X:1
T:Title
%%score { ( 1 3 ) | ( 2 4 ) }
L:1/8
M:4/4
K:Ab
V:1 treble nm="Grand Piano"
V:3 treble 
V:2 bass 
V:4 bass 
V:1
 z4 z2[Q:1/4=100] [CA][DB] | [Ec]>[Ec] [Ec][Ec] d[Ec][EB][EA] | [DF][FA] [Fd]>d c2 cd | %3
 e>e AA dcBA | B6 z2 | [Ec]>[Ec] [Ec][Ec] d[Ec][EB][EA] | [DF][FA] [Fd]>d c2 cd | %7
 e>e [EA][EA] [Fc][DFB][CEA][B,EG] | A6 z2 | c>c cc d2 c2 | z4 [DF]4[K:bass] | %11
 [Fd]>[Fd] [Fd][Fd] [Ge]2 dd | dc A>B c4 | c>c cc d2 c[=EB] | %14
 [FA]>[A,FA] [B,=EG][A,FA] [DGB]2 [DFA]2 | [A,DF][A,FA][A,EG][A,DF] [A,CE][CEA][CFA][=DAB] | %16
[M:15/16] [EAc][Ae]/-[Ae][EGc]/-[EGc][DGB]/ [CEA]3 |] %17
V:2
 z4 z2 [A,,E,][A,,E,] | [A,,A,]>[A,,A,] [A,,A,][A,,A,] [A,F][A,,A,][B,,G,][C,A,] | %2
 [D,A,][D,A,] [D,A,]>[K:treble][F,A,F] [A,E]2 [A,E][A,B,E] | %3
 [A,CA]>[A,CA] [CE][CE] [B,EG][A,EA][K:bass][G,E][F,=DF] | %4
 [E,E]2 [E,B,]>[E,B,] [E,G,][D,G,][C,A,][B,,G,] | %5
 [A,,A,]>[A,,A,] [A,,A,][A,,A,] [A,F][A,,A,][B,,G,][C,A,] | %6
 [D,A,][D,A,] [D,A,]>[F,A,F] [A,E]2 [A,E][A,B,E] | [A,CE]>[A,CE] [C,A,][C,A,] [D,A,]D,E,E, | %8
 z2[K:treble] D2 C2 z2 | [A,E]>[A,E] [A,E][A,E] [A,F]2[K:bass] [A,E]2 | %10
 [A,,A,][A,,A,][A,,A,][A,,A,] [D,A,]2 z2 | %11
 [B,,B,]>[B,,B,] [B,,B,][B,,B,] [E,B,]2[K:treble] [G,B,F][G,B,F] | %12
 [A,F][A,E] [A,DF]>[A,DF] [A,CE]4 | [A,E]>[A,E] [A,E][A,E] [A,F]2[K:bass] [A,E][C,G,] | %14
 [D,F,]>D, D,D, D,2 D,2 | D,D,D,D, A,,A,F,F, |[M:15/16] E,[E,C]/-[E,C]E,/-E,E,/ A,,3 |] %17
V:3
 x8 | x8 | x8 | x8 | G2 G>G EE[EA][EB] | x8 | x8 | x8 | [CE]2 F2 E2 z2 | x8 | %10
 [CE]2 [Ec]2 z2[K:bass] [B,,B,]2 | x8 | x8 | x8 | x8 | x8 |[M:15/16] x15/2 |] %17
V:4
 x8 | x8 | x7/2[K:treble] x9/2 | x6[K:bass] x2 | x8 | x8 | x8 | x8 | A,,6[K:treble] z2 | %9
 x6[K:bass] x2 | x8 | x6[K:treble] x2 | x8 | x6[K:bass] x2 | x8 | x8 |[M:15/16] x15/2 |] %17

